!!!OTL: Graf und Nonne (Die Nonne) Einst stand ich auf hohen Felsen
!!!ARE: Europa, Osteuropa, Tschechoslowakei, Boehmen, Egerland, Hostau, Muttersdorf
!!!ARD: Europa%Osteuropa%Ceska Republika@Boehmen#Egerland#Hostau:Muttersdorf!
!!!ARL: 49.55/12.75!
!!!YOR: 8, S. 102
!!    1960 aufgezeichnet
!!!SCT: Q0155n
!!!YEM: Copyright 1995, estate of Helmut Schaffrath.
**kern
*ICvox
*Ivox
*M6/8
*k[f#c#g#d#]
*E:
{8B
=1
8g#
8f#
8e
8e
8d#
8e
=2
8f#
4f#
4r}
{8B
=3
8a
8g#
8f#
8f#
8e
8f#
=4
4.g#
4r}
{8B
=5
8g#
8f#
8e
8e
8d#
8e
=6
4c#
8a
8a
8g#}
{8f#
=7
8e
8d#
8e
8g#
8f#
8f#
=8
4.e
4r}
{8B
=9
8g#
8f#
8e
8e
8d#
8e
=10
4c#
8a
8a
8g#}
{8f#
=11
8e
8d#
8e
8g#
8f#
8f#
=12
4.e
4r}
==
!!!AGN: Ballade, Standesunterschied, vergebliche Werbung, Liebe, Klage, Tod
!! Pause in der vierten und letzten Zeile ergaenzt.
!!!ONB: ESAC (Essen Associative Code) Database: BALLADE
!!!AMT: compound duple
!!!AIN: vox
!!!EED: Helmut Schaffrath
!!!EEV: 1.0
*-
!!!title: @{OTL} [@{SCT}]
